X:166
T:Ronfleuse Gobeil
M:4/4
L:1/8
K:D
a2fd Adfa  | gece fddf | a2fd Adfa |1 gece d3f :|2 gece d3B |:
A2f2 fef2 | B2g2 gfg2 | A3c eece | dcde fafd | 
A3f fef2 | B2g2  gfg2 | A3c ecAc |1 e2d2 d2B2 :|2 e2d2 d3e |:
fa2b afde | fdad fdd2 | efga bgef | 
gebe gfe2 | faab afde | fdad ffd2 | fBBA BcdB | AFEF D4 :|

